apps/mainsite/static/images/competency.svg

<?xml version="1.0" encoding="UTF-8"?>
<svg width="400" height="400" fill="none" version="1.1" viewBox="0 0 400 400" xmlns="http://www.w3.org/2000/svg">
 <g transform="matrix(.99898 0 0 .99898 -5.9388 -.49408)">
  <path d="m220.01 8.7653 101.96 37.112c8.955 3.2594 16.475 9.5698 21.24 17.823l54.254 93.97c4.765 8.253 6.47 17.921 4.815 27.306l-18.842 106.86c-1.655 9.385-6.564 17.887-13.864 24.013l-83.121 69.747c-7.301 6.125-16.526 9.483-26.056 9.483h-108.51c-9.53 0-18.755-3.358-26.055-9.483l-83.122-69.747c-7.3003-6.126-12.209-14.628-13.864-24.013l-18.842-106.86c-1.6548-9.385 0.0499-19.053 4.8149-27.306l54.254-93.97c4.765-8.2532 12.285-14.564 21.241-17.823l101.96-37.112c8.955-3.2594 18.772-3.2594 27.727 0z" fill="#fff" stroke="#492e98" stroke-width="6.9055"/>
  <path d="m23.812 246.34 7.6336 43.386c1.693 9.622 6.719 18.342 14.197 24.63l80.64 67.812c7.497 6.304 16.978 9.761 26.774 9.761h105.2c9.795 0 19.277-3.457 26.774-9.761l80.64-67.812c7.477-6.288 12.503-15.008 14.196-24.63l7.634-43.386z" clip-rule="evenodd" fill="#f1f0ff" fill-rule="evenodd"/>
  <path d="m81.664 66.152c-0.9529 1.1698-1.8162 2.4197-2.5788 3.7407l-3.1091 5.3851 3.9869 2.3018 3.1091-5.3851c0.6392-1.1072 1.3627-2.1547 2.1612-3.1349zm-13.037 21.854 3.9869 2.3018-6.2182 10.77-3.9869-2.3014zm-13.567 23.499 3.9869 2.302-6.2182 10.77-3.9869-2.302zm-13.567 23.499 3.9869 2.302-6.2183 10.77-3.9868-2.302zm-13.567 23.499 3.9868 2.301-3.1091 5.386c-0.6392 1.107-1.1846 2.257-1.6343 3.439l-4.3026-1.638c0.5366-1.41 1.1874-2.782 1.9501-4.103zm-6.9149 20.012 4.6032-0.067c0.0184 1.265 0.1375 2.532 0.3595 3.791l1.0798 6.124-4.5338 0.799-1.0797-6.124c-0.2649-1.502-0.407-3.014-0.429-4.523zm4.061 25.122 4.5337-0.8 2.1595 12.248-4.5337 0.799zm4.7117 26.721 2.1596 12.248 4.5337-0.8-2.1596-12.247zm4.7118 26.722 4.5337-0.799 2.1596 12.247-4.5337 0.8zm4.7118 26.722 1.0798 6.124c0.2648 1.502 0.6485 2.972 1.1439 4.397l4.3484-1.512c-0.4151-1.194-0.7366-2.426-0.9586-3.685l-1.0798-6.123zm7.5668 19.775c0.9866 1.142 2.0676 2.209 3.2361 3.19l4.7634 3.997 2.9592-3.527-4.7635-3.997c-0.9793-0.822-1.8853-1.716-2.7119-2.673zm19.258 16.634 2.9592-3.527 9.5268 7.994-2.9591 3.527zm20.786 17.441 2.9591-3.526 9.5269 7.994-2.9592 3.526zm20.786 17.442 2.959-3.527 9.527 7.994-2.959 3.527zm20.786 17.441 2.959-3.526 4.764 3.997c0.979 0.821 2.017 1.558 3.103 2.206l-2.36 3.953c-1.295-0.773-2.534-1.652-3.703-2.633zm125.36 10.648v-4.603h6.218c1.278 0 2.547-0.103 3.795-0.305l0.734 4.545c-1.49 0.241-3.004 0.363-4.529 0.363zm20.789-4.018-2.36-3.953c1.086-0.648 2.124-1.385 3.103-2.206l4.764-3.997 2.959 3.526-4.764 3.997c-1.168 0.981-2.407 1.86-3.702 2.633zm19.725-16.077-2.959-3.527 9.527-7.994 2.959 3.527zm20.786-17.442-2.959-3.526 9.526-7.994 2.96 3.526zm20.786-17.441-2.96-3.527 9.527-7.994 2.959 3.527zm20.785-17.441-2.959-3.527 4.764-3.997c0.979-0.822 1.885-1.716 2.712-2.673l3.483 3.01c-0.987 1.142-2.068 2.209-3.236 3.19zm13.343-16.441-4.348-1.512c0.415-1.194 0.736-2.426 0.958-3.685l1.08-6.123 4.534 0.799-1.08 6.124c-0.265 1.502-0.649 2.972-1.144 4.397zm4.776-24.995-4.534-0.8 2.16-12.247 4.534 0.799zm4.712-26.722-4.534-0.8 2.16-12.247 4.533 0.799zm4.711-26.722-4.533-0.799 2.159-12.248 4.534 0.8zm4.712-26.722-4.533-0.799 1.079-6.124c0.222-1.259 0.341-2.526 0.36-3.791l4.603 0.067c-0.022 1.509-0.164 3.021-0.429 4.523zm-0.347-21.171-4.302 1.638c-0.45-1.182-0.995-2.332-1.635-3.439l-3.109-5.386 3.987-2.301 3.109 5.385c0.763 1.321 1.414 2.693 1.95 4.103zm-12.408-22.217-3.987 2.302-6.218-10.77 3.987-2.302zm-13.567-23.499-3.987 2.302-6.218-10.77 3.987-2.302zm-13.567-23.498-3.987 2.3014-6.218-10.77 3.987-2.3018zm-13.567-23.499-3.987 2.3018-3.109-5.3851c-0.639-1.1072-1.362-2.1547-2.161-3.1349l3.569-2.9076c0.953 1.1698 1.817 2.4197 2.579 3.7407zm-13.874-15.995-2.243 4.0199c-1.104-0.6162-2.262-1.1468-3.463-1.584l-5.843-2.1268 1.574-4.326 5.844 2.1268c1.433 0.5217 2.814 1.1548 4.131 1.8901zm-23.786-9.0437-1.574 4.326-11.687-4.2535 1.575-4.3261zm-25.498-9.2804-1.574 4.326-11.686-4.2535 1.574-4.326zm-25.497-9.2804-1.575 4.326-11.686-4.2535 1.574-4.326zm-25.498-9.2804-1.574 4.326-5.844-2.1267c-1.201-0.4373-2.428-0.7747-3.67-1.0123l0.865-4.5216c1.482 0.2835 2.947 0.6862 4.38 1.2078zm-20.909-3.3346 0.865 4.5216c-1.242 0.2376-2.469 0.575-3.671 1.0123l-5.843 2.1267-1.574-4.326 5.843-2.1268c1.433-0.5216 2.898-0.9243 4.38-1.2078zm-24.035 8.3615 1.575 4.326-11.687 4.2535-1.574-4.326zm-25.497 9.2804 1.574 4.326-11.686 4.2535-1.575-4.326zm-25.498 9.2803 1.575 4.3261-11.687 4.2535-1.574-4.326zm-25.498 9.2804 1.5746 4.326-5.8433 2.1268c-1.2013 0.4372-2.3585 0.9678-3.4625 1.584l-2.2437-4.0199c1.3175-0.7353 2.6984-1.3684 4.1317-1.8901zm139.22 327.92v-4.603h-12.436v4.603zm-27.134 0v-4.603h-12.436v4.603zm-27.134 0v-4.603h-12.436v4.603zm-27.134 0v-4.603h-6.218c-1.279 0-2.547-0.103-3.796-0.305l-0.733 4.545c1.489 0.241 3.004 0.363 4.529 0.363z" clip-rule="evenodd" fill="#ff4849" fill-rule="evenodd"/>
 </g>
</svg>

<svg width="412" height="411" viewBox="0 0 412 411" fill="none" xmlns="http://www.w3.org/2000/svg">
<path d="M220.013 8.76526L321.977 45.8769C330.932 49.1363 338.452 55.4467 343.217 63.6999L397.471 157.67C402.236 165.923 403.941 175.591 402.286 184.976L383.444 291.835C381.789 301.22 376.88 309.722 369.58 315.848L286.459 385.595C279.158 391.72 269.933 395.078 260.403 395.078H151.896C142.366 395.078 133.141 391.72 125.841 385.595L42.7193 315.848C35.419 309.722 30.5103 301.22 28.8555 291.835L10.0134 184.976C8.35856 175.591 10.0633 165.923 14.8283 157.67L69.0818 63.6999C73.8468 55.4467 81.3672 49.1363 90.3224 45.8769L192.286 8.76526C201.241 5.50584 211.058 5.50584 220.013 8.76526Z" fill="white" stroke="#492E98" stroke-width="6.90547"/>
<path fill-rule="evenodd" clip-rule="evenodd" d="M23.8125 246.341L31.4461 289.727C33.1391 299.349 38.1651 308.069 45.643 314.357L126.283 382.169C133.78 388.473 143.261 391.93 153.057 391.93H258.256C268.051 391.93 277.533 388.473 285.03 382.169L365.67 314.357C373.147 308.069 378.173 299.349 379.866 289.727L387.5 246.341H23.8125Z" fill="#F1F0FF"/>
<path fill-rule="evenodd" clip-rule="evenodd" d="M81.6643 66.152C80.7114 67.3218 79.8481 68.5717 79.0855 69.8927L75.9764 75.2778L79.9633 77.5796L83.0724 72.1945C83.7116 71.0873 84.4351 70.0398 85.2336 69.0596L81.6643 66.152ZM68.6276 88.0063L72.6145 90.3081L66.3963 101.078L62.4094 98.7766L68.6276 88.0063ZM55.0606 111.505L59.0475 113.807L52.8293 124.577L48.8424 122.275L55.0606 111.505ZM41.4936 135.004L45.4805 137.306L39.2622 148.076L35.2754 145.774L41.4936 135.004ZM27.9266 158.503L31.9134 160.804L28.8043 166.19C28.1651 167.297 27.6197 168.447 27.17 169.629L22.8674 167.991C23.404 166.581 24.0548 165.209 24.8175 163.888L27.9266 158.503ZM21.0117 178.515L25.6149 178.448C25.6333 179.713 25.7524 180.98 25.9744 182.239L27.0542 188.363L22.5204 189.162L21.4407 183.038C21.1758 181.536 21.0337 180.024 21.0117 178.515ZM25.0727 203.637L29.6064 202.837L31.7659 215.085L27.2322 215.884L25.0727 203.637ZM29.7844 230.358L31.944 242.606L36.4777 241.806L34.3181 229.559L29.7844 230.358ZM34.4962 257.08L39.0299 256.281L41.1895 268.528L36.6558 269.328L34.4962 257.08ZM39.208 283.802L40.2878 289.926C40.5526 291.428 40.9363 292.898 41.4317 294.323L45.7801 292.811C45.365 291.617 45.0435 290.385 44.8215 289.126L43.7417 283.003L39.208 283.802ZM46.7748 303.577C47.7614 304.719 48.8424 305.786 50.0109 306.767L54.7743 310.764L57.7335 307.237L52.97 303.24C51.9907 302.418 51.0847 301.524 50.2581 300.567L46.7748 303.577ZM66.0333 320.211L68.9925 316.684L78.5193 324.678L75.5602 328.205L66.0333 320.211ZM86.8192 337.652L89.7783 334.126L99.3052 342.12L96.346 345.646L86.8192 337.652ZM107.605 355.094L110.564 351.567L120.091 359.561L117.132 363.088L107.605 355.094ZM128.391 372.535L131.35 369.009L136.114 373.006C137.093 373.827 138.131 374.564 139.217 375.212L136.857 379.165C135.562 378.392 134.323 377.513 133.154 376.532L128.391 372.535ZM253.746 383.183V378.58H259.964C261.242 378.58 262.511 378.477 263.759 378.275L264.493 382.82C263.003 383.061 261.489 383.183 259.964 383.183H253.746ZM274.535 379.165L272.175 375.212C273.261 374.564 274.299 373.827 275.278 373.006L280.042 369.009L283.001 372.535L278.237 376.532C277.069 377.513 275.83 378.392 274.535 379.165ZM294.26 363.088L291.301 359.561L300.828 351.567L303.787 355.094L294.26 363.088ZM315.046 345.646L312.087 342.12L321.613 334.126L324.573 337.652L315.046 345.646ZM335.832 328.205L332.872 324.678L342.399 316.684L345.358 320.211L335.832 328.205ZM356.617 310.764L353.658 307.237L358.422 303.24C359.401 302.418 360.307 301.524 361.134 300.567L364.617 303.577C363.63 304.719 362.549 305.786 361.381 306.767L356.617 310.764ZM369.96 294.323L365.612 292.811C366.027 291.617 366.348 290.385 366.57 289.126L367.65 283.003L372.184 283.802L371.104 289.926C370.839 291.428 370.455 292.898 369.96 294.323ZM374.736 269.328L370.202 268.528L372.362 256.281L376.896 257.08L374.736 269.328ZM379.448 242.606L374.914 241.806L377.074 229.559L381.607 230.358L379.448 242.606ZM384.159 215.884L379.626 215.085L381.785 202.837L386.319 203.637L384.159 215.884ZM388.871 189.162L384.338 188.363L385.417 182.239C385.639 180.98 385.758 179.713 385.777 178.448L390.38 178.515C390.358 180.024 390.216 181.536 389.951 183.038L388.871 189.162ZM388.524 167.991L384.222 169.629C383.772 168.447 383.227 167.297 382.587 166.19L379.478 160.804L383.465 158.503L386.574 163.888C387.337 165.209 387.988 166.581 388.524 167.991ZM376.116 145.774L372.129 148.076L365.911 137.306L369.898 135.004L376.116 145.774ZM362.549 122.275L358.562 124.577L352.344 113.807L356.331 111.505L362.549 122.275ZM348.982 98.7766L344.995 101.078L338.777 90.3081L342.764 88.0063L348.982 98.7766ZM335.415 75.2778L331.428 77.5796L328.319 72.1945C327.68 71.0873 326.957 70.0398 326.158 69.0596L329.727 66.152C330.68 67.3218 331.544 68.5717 332.306 69.8927L335.415 75.2778ZM321.541 59.283L319.298 63.3029C318.194 62.6867 317.036 62.1561 315.835 61.7189L309.992 59.5921L311.566 55.2661L317.41 57.3929C318.843 57.9146 320.224 58.5477 321.541 59.283ZM297.755 50.2393L296.181 54.5653L284.494 50.3118L286.069 45.9857L297.755 50.2393ZM272.257 40.9589L270.683 45.2849L258.997 41.0314L260.571 36.7054L272.257 40.9589ZM246.76 31.6785L245.185 36.0045L233.499 31.751L235.073 27.425L246.76 31.6785ZM221.262 22.3981L219.688 26.7241L213.844 24.5974C212.643 24.1601 211.416 23.8227 210.174 23.5851L211.039 19.0635C212.521 19.347 213.986 19.7497 215.419 20.2713L221.262 22.3981ZM200.353 19.0635L201.218 23.5851C199.976 23.8227 198.749 24.1601 197.547 24.5974L191.704 26.7241L190.13 22.3981L195.973 20.2713C197.406 19.7497 198.871 19.347 200.353 19.0635ZM176.318 27.425L177.893 31.751L166.206 36.0045L164.632 31.6785L176.318 27.425ZM150.821 36.7054L152.395 41.0314L140.709 45.2849L139.134 40.9589L150.821 36.7054ZM125.323 45.9857L126.898 50.3118L115.211 54.5653L113.637 50.2393L125.323 45.9857ZM99.8254 55.2661L101.4 59.5921L95.5567 61.7189C94.3554 62.1561 93.1982 62.6867 92.0942 63.3029L89.8505 59.283C91.168 58.5477 92.5489 57.9146 93.9822 57.3929L99.8254 55.2661ZM239.048 383.183V378.58H226.612V383.183H239.048ZM211.914 383.183V378.58H199.478V383.183H211.914ZM184.78 383.183V378.58H172.344V383.183H184.78ZM157.646 383.183V378.58H151.428C150.149 378.58 148.881 378.477 147.632 378.275L146.899 382.82C148.388 383.061 149.903 383.183 151.428 383.183H157.646Z" fill="#FF4849"/>
</svg>
